X: 35935
T: Santorini
R: reel
M: 4/4
K: Bminor
|:(3BBB Bc dcBA|BABc dcBA|FAEA FAEA|FABc dcBA|
(3BBB Bc dcBA|BABc dcde|fa (3aaa afdf|egfe dB (3BBB:|
|:(3ddd fd egfe|dfed cAAc|d2 fd efge|fdec dBBc|
Adfd ecAG|FAdf efge|fa (3aaa afdf|egfe dB (3BBB:|

